images/shield.svg

<svg width="50" height="50" viewBox="0 0 50 50" fill="none" xmlns="http://www.w3.org/2000/svg">
<path d="M15.851 27.0849V19.0197C15.851 18.4041 16.2135 17.8463 16.776 17.5963C22.0118 15.2693 27.9883 15.2693 33.2241 17.5963C33.7866 17.8463 34.1491 18.4041 34.1491 19.0197V27.0849C34.1491 27.7647 33.8093 28.3995 33.2437 28.7766L26.1278 33.5206C25.4449 33.9759 24.5552 33.9759 23.8722 33.5206L16.7563 28.7766C16.1907 28.3995 15.851 27.7647 15.851 27.0849Z" stroke="#72B33B" stroke-width="1.70223"/>
<path d="M25.5414 21L23 23.5414" stroke="#72B33B" stroke-width="1.70223" stroke-linecap="round"/>
<path d="M28 23L25 26" stroke="#72B33B" stroke-width="1.70223" stroke-linecap="round"/>
<path opacity="0.1" fill-rule="evenodd" clip-rule="evenodd" d="M25 50C38.8071 50 50 38.8071 50 25C50 11.1929 38.8071 0 25 0C11.1929 0 0 11.1929 0 25C0 38.8071 11.1929 50 25 50Z" fill="#72B33B"/>
</svg>

<svg width="50" height="50" fill="none" xmlns="http://www.w3.org/2000/svg"><path d="M15.851 27.085V19.02c0-.616.362-1.174.925-1.424a20.25 20.25 0 0 1 16.448 0c.563.25.925.808.925 1.424v8.065c0 .68-.34 1.314-.905 1.692l-7.116 4.744a2.033 2.033 0 0 1-2.256 0l-7.116-4.744a2.033 2.033 0 0 1-.905-1.692Z" stroke="#72B33B" stroke-width="1.702"/><path d="M25.541 21 23 23.541M28 23l-3 3" stroke="#72B33B" stroke-width="1.702" stroke-linecap="round"/><path opacity=".1" fill-rule="evenodd" clip-rule="evenodd" d="M25 50c13.807 0 25-11.193 25-25S38.807 0 25 0 0 11.193 0 25s11.193 25 25 25Z" fill="#72B33B"/></svg>
